public/img/login-logo-icon.svg

<svg width="32" height="29" viewBox="0 0 32 29" fill="none" xmlns="http://www.w3.org/2000/svg">
<path d="M17.875 1H14.75L1 24.0488H5.0625L6.9375 20.7561L17.875 1Z" fill="#2C36F2"/>
<path d="M2.875 28H29.125L17.875 7.58537L16 10.878L21.625 20.7561L23.5 24.0488H5.0625H1L2.875 28Z" fill="#2C36F2"/>
<path d="M23.5 24.0488L21.625 20.7561H10.375H6.9375L5.0625 24.0488H23.5Z" fill="#2C36F2"/>
<path d="M29.125 28L31 24.0488L17.875 1L6.9375 20.7561H10.375L16 10.878L17.875 7.58537L29.125 28Z" fill="#2C36F2"/>
<path d="M16 10.878L10.375 20.7561H21.625L16 10.878Z" fill="#2C36F2"/>
<path d="M29.125 28H2.875L1 24.0488M29.125 28L31 24.0488L17.875 1M29.125 28L17.875 7.58537L16 10.878M17.875 1H14.75L1 24.0488M17.875 1L6.9375 20.7561M1 24.0488H5.0625M16 10.878L10.375 20.7561M16 10.878L21.625 20.7561M10.375 20.7561H21.625M10.375 20.7561H6.9375M21.625 20.7561L23.5 24.0488H5.0625M6.9375 20.7561L5.0625 24.0488" stroke="#F6F7FF"/>
</svg>

<svg width="32" height="29" fill="none" xmlns="http://www.w3.org/2000/svg"><path d="M17.875 1H14.75L1 24.049h4.063l1.875-3.293L17.874 1z" fill="#2C36F2"/><path d="M2.875 28h26.25L17.875 7.585 16 10.878l5.625 9.878L23.5 24.05H1L2.875 28z" fill="#2C36F2"/><path d="M23.5 24.049l-1.875-3.293H6.937L5.063 24.05H23.5z" fill="#2C36F2"/><path d="M29.125 28L31 24.049 17.875 1 6.937 20.756h3.438L16 10.878l1.875-3.293L29.125 28z" fill="#2C36F2"/><path d="M16 10.878l-5.625 9.878h11.25L16 10.878z" fill="#2C36F2"/><path d="M29.125 28H2.875L1 24.049M29.125 28L31 24.049 17.875 1m11.25 27L17.875 7.585 16 10.878M17.875 1H14.75L1 24.049M17.875 1L6.937 20.756M1 24.05h4.063M16 10.878l-5.625 9.878M16 10.878l5.625 9.878m-11.25 0h11.25m-11.25 0H6.937m14.688 0L23.5 24.05H5.062m1.875-3.293L5.063 24.05" stroke="#F6F7FF"/></svg>
